X:3126
T:Johnny Micky Barry
O:england
M:2/4
L:1/16
K:G
B A|G2B2 D2E2|G4g3e|d2B2 A2G2|
dedB A2BA|G2B2 D2E2|G4g3e|d2G2 A2GA|
B2G2 G2:|
|:G A|B2d2 B2d2|g4g3e|d2B2 A2G2|
dedB A2GA|B2d2 B2d2|g4g3e|d2B2 A2GA|
B2G2 G2:|


